src/assets/duotone/Money2.svg

<?xml version="1.0" encoding="UTF-8"?>
<svg width="24" height="24" viewBox="0 0 24 24" xmlns="http://www.w3.org/2000/svg">
 <path d="m22 9v6h-1c-3 0-4 1-4 4v1.5h-10v-1.5c0-3-1-4-4-4h-1v-6h1c3 0 4-1 4-4v-1.5h10v1.5c0 3 1 4 4 4h1z" opacity=".4"/>
 <path d="m12 15c1.6569 0 3-1.3431 3-3s-1.3431-3-3-3-3 1.3431-3 3 1.3431 3 3 3z"/>
 <path d="M7 3.5V5C7 8 6 9 3 9H2V8.5C2 5 4 3.5 7 3.5Z"/>
 <path d="m22 8.5v0.5h-1c-3 0-4-1-4-4v-1.5c3 0 5 1.5 5 5z"/>
 <path d="m7 19v1.5c-3 0-5-1.5-5-5v-0.5h1c3 0 4 1 4 4z"/>
 <path d="m22 15v0.5c0 3.5-2 5-5 5v-1.5c0-3 1-4 4-4h1z"/>
</svg>

<svg width="24" height="24" viewBox="0 0 24 24"  xmlns="http://www.w3.org/2000/svg">
<path opacity="0.4" d="M22 9V15H21C18 15 17 16 17 19V20.5H7V19C7 16 6 15 3 15H2V9H3C6 9 7 8 7 5V3.5H17V5C17 8 18 9 21 9H22Z" />
<path d="M12 15C13.6569 15 15 13.6569 15 12C15 10.3431 13.6569 9 12 9C10.3431 9 9 10.3431 9 12C9 13.6569 10.3431 15 12 15Z" />
<path d="M7 3.5V5C7 8 6 9 3 9H2V8.5C2 5 4 3.5 7 3.5Z" />
<path d="M22 8.5V9H21C18 9 17 8 17 5V3.5C20 3.5 22 5 22 8.5Z" />
<path d="M7 19V20.5C4 20.5 2 19 2 15.5V15H3C6 15 7 16 7 19Z" />
<path d="M22 15V15.5C22 19 20 20.5 17 20.5V19C17 16 18 15 21 15H22Z" />
</svg>
